img/login.svg

<svg height="19" viewBox="0 0 20 19" width="20" xmlns="http://www.w3.org/2000/svg"><path d="m6.02933839 14.875v-2.916h-6.02933839v-4.917h6.02933839v-2.917l6.90250471 5.375zm11.97485281-14.875c1.0976948 0 1.9958088.9 1.9958088 2v15c0 1.1-.898114 2-1.9958088 2h-12.97275721c-1.09769484 0-1.9958088-.9-1.9958088-2v-2h1.9958088v2h12.97275721v-15h-12.97275721v2h-1.9958088v-2c0-1.1.89811396-2 1.9958088-2z" fill="#fff"/></svg>

<?xml version="1.0" encoding="UTF-8"?>
<svg width="20px" height="19px" viewBox="0 0 20 19" version="1.1" xmlns="http://www.w3.org/2000/svg" xmlns:xlink="http://www.w3.org/1999/xlink">
    <!-- Generator: Sketch 50.2 (55047) - http://www.bohemiancoding.com/sketch -->
    <title>Combined Shape</title>
    <desc>Created with Sketch.</desc>
    <defs></defs>
    <g id="Page-1" stroke="none" stroke-width="1" fill="none" fill-rule="evenodd">
        <path d="M6.02933839,14.875 L6.02933839,11.959 L0,11.959 L0,7.042 L6.02933839,7.042 L6.02933839,4.125 L12.9318431,9.5 L6.02933839,14.875 Z M18.0041912,0 C19.101886,0 20,0.9 20,2 L20,17 C20,18.1 19.101886,19 18.0041912,19 L5.03143399,19 C3.93373915,19 3.03562519,18.1 3.03562519,17 L3.03562519,15 L5.03143399,15 L5.03143399,17 L18.0041912,17 L18.0041912,2 L5.03143399,2 L5.03143399,4 L3.03562519,4 L3.03562519,2 C3.03562519,0.9 3.93373915,0 5.03143399,0 L18.0041912,0 Z" id="Combined-Shape" fill="#FFFFFF" fill-rule="nonzero"></path>
    </g>
</svg>
